X:5708
T:Gan Ainm
R:Reel
S:(Unknown fiddle)
H:
N:
D:Milltown fiddle recital
Z:Adrian Scahill
M:4/4
L:1/8
K:D
F2AF dFAF|DFA=c BGEG|F2AF dFAG|Agfe dBAG|\
F2AF dFAF|DFA=c BGEG|F2AF dFAG|Agfe defg||\
(3aba fd adbd|adfd ceA^g|adfa gbag|fedc defg|\
(3aba fd adbd|adfd cdef|gbag fagf|egfe dBAG||


